X: 23691
T: Lios Uí Bhigín
R: slide
M: 12/8
K: Gmajor
efg||f2d d2c d3 efg|f2d d2c A3 efg|
f2d edc d3 ddc|B2d c2A G3 efg|
f2d d2c d3 efg|f2d edc A3 efg|
f2d d2c d3 ddc|Bcd c2A G3 G3||
A2A A2G A2A d2c|A2A BAG E2G D2G|
A2A BAG A2B c2A|B2d c2A G3 G3|
A2A BAG A2B d2c|A2A BAG E2G D2G|
A2A BAG A2B cAA|B2d c2A G3 efg||

